; generated by PrusaSlicer 2.8.1+win64 on 2024-11-15 at 22:44:46 UTC


;
;
; 

; external perimeters extrusion width = 0.45mm
; perimeters extrusion width = 0.45mm
; infill extrusion width = 0.45mm
; solid infill extrusion width = 0.45mm
; top infill extrusion width = 0.40mm
; support material extrusion width = 0.35mm
; first layer extrusion width = 0.42mm

; external perimeters extrusion width = 0.45mm
; perimeters extrusion width = 0.45mm
; infill extrusion width = 0.45mm
; solid infill extrusion width = 0.45mm
; top infill extrusion width = 0.40mm
; support material extrusion width = 0.35mm
; first layer extrusion width = 0.42mm

; external perimeters extrusion width = 0.45mm
; perimeters extrusion width = 0.45mm
; infill extrusion width = 0.45mm
; solid infill extrusion width = 0.45mm
; top infill extrusion width = 0.40mm
; support material extrusion width = 0.35mm
; first layer extrusion width = 0.42mm

M73 P0 R152
M73 Q0 S157
M201 X1000 Y1000 Z200 E5000 ; sets maximum accelerations, mm/sec^2
M203 X200 Y200 Z12 E120 ; sets maximum feedrates, mm / sec
M204 S1250 T1250 ; sets acceleration (S) and retract acceleration (R), mm/sec^2
M205 X8.00 Y8.00 Z0.40 E4.50 ; sets the jerk limits, mm/sec
M205 S0 T0 ; sets the minimum extruding and travel feed rate, mm/sec

; printing object Eggfinder LCD Case LiPo Sled.STL id:1 copy 0
; stop printing object Eggfinder LCD Case LiPo Sled.STL id:1 copy 0
; printing object EggFinder LCD Case LiPo Sled Retainer.STL id:2 copy 0
; stop printing object EggFinder LCD Case LiPo Sled Retainer.STL id:2 copy 0
; printing object Eggfinder LCD Case Electronics Sled.STL id:0 copy 0
; stop printing object Eggfinder LCD Case Electronics Sled.STL id:0 copy 0

;TYPE:Custom
M862.3 P "MK3S" ; printer model check
M862.1 P0.4 ; nozzle diameter check
M115 U3.14.0 ; tell printer latest fw version
G90 ; use absolute coordinates
M83 ; extruder relative mode
M104 S215 ; set extruder temp
M140 S60 ; set bed temp
M190 S60 ; wait for bed temp
M109 S215 ; wait for extruder temp
G28 W ; home all without mesh bed level
G80 X52.7978 Y57.4017 W126.39 H94.3798 ; mesh bed levelling

G1 Z0.2 F720
G1 Y-3 F1000 ; go outside print area
G92 E0
G1 X60 E9 F1000 ; intro line
G1 X100 E12.5 F1000 ; intro line

G92 E0
M221 S95

; Don't change E values below. Excessive value can damage the printer.

M907 E538 ; set extruder motor current
G21 ; set units to millimeters
G90 ; use absolute coordinates
M83 ; use relative distances for extrusion

M900 K0.05 ; Filament gcode LA 1.5
M900 K30 ; Filament gcode LA 1.0




M107
;LAYER_CHANGE
;Z:0.2
;HEIGHT:0.2
G1 E-.8 F2100
G1 Z.6 F720
; printing object EggFinder LCD Case LiPo Sled Retainer.STL id:2 copy 0
G1 X160.379 Y103.259 F10800
G1 Z.2 F720
G1 E.8 F2100
M204 S800
;TYPE:Perimeter
;WIDTH:0.419999
G1 F1800
G1 X160.407 Y103.455 E.00621
G1 X160.375 Y104.018 E.01768
G1 X160.245 Y104.526 E.01644
G1 X160.017 Y105.01 E.01677
G1 X159.686 Y105.459 E.01749
G1 X159.267 Y105.838 E.01771
G1 X158.784 Y106.125 E.01762
G1 X158.27 Y106.306 E.01709
G1 X157.717 Y106.385 E.01751
G1 X157.155 Y106.352 E.01765
G1 X156.63 Y106.215 E.01701
G1 X156.16 Y105.992 E.01631
G1 X155.713 Y105.662 E.01742
G1 X155.335 Y105.244 E.01767
G1 X155.16 Y104.966 E.0103
G1 X154.983 Y104.608 E.01252
G1 X154.835 Y104.112 E.01623
G1 X154.783 Y103.571 E.01704
G1 X154.829 Y103.067 E.01587
G1 X154.977 Y102.548 E.01692
G1 X155.23 Y102.053 E.01743
G1 X155.569 Y101.623 E.01717
G1 X155.993 Y101.263 E.01744
G1 X156.471 Y100.995 E.01718
G1 X156.996 Y100.825 E.0173
G1 X157.515 Y100.762 E.01639
G1 X158.021 Y100.795 E.0159
G1 X158.544 Y100.927 E.01691
G1 X159.032 Y101.156 E.0169
G1 X159.483 Y101.488 E.01756
G1 X159.861 Y101.906 E.01767
G1 X160.148 Y102.389 E.01762
G1 X160.329 Y102.902 E.01706
G1 X160.371 Y103.199 E.0094
M204 S1000
G1 X160.371 Y103.199 F10800
G1 X160.007 Y103.296
M204 S800
G1 F1800
G1 X160.034 Y103.61 E.00988
G1 X159.979 Y104.09 E.01515
G1 X159.844 Y104.519 E.0141
G1 X159.621 Y104.932 E.01472
G1 X159.311 Y105.307 E.01526
G1 X158.93 Y105.614 E.01534
G1 X158.501 Y105.838 E.01517
G1 X158.048 Y105.969 E.01479
G1 X157.563 Y106.011 E.01526
G1 X157.081 Y105.956 E.01521
G1 X156.638 Y105.814 E.01459
G1 X156.241 Y105.598 E.01417
G1 X155.865 Y105.287 E.0153
G1 X155.56 Y104.909 E.01523
G1 X155.49 Y104.784 E.00449
G1 X155.342 Y104.493 E.01024
G1 X155.204 Y104.026 E.01527
G1 X155.162 Y103.54 E.01529
G1 X155.217 Y103.058 E.01521
G1 X155.361 Y102.611 E.01472
G1 X155.596 Y102.187 E.0152
G1 X155.9 Y101.828 E.01475
G1 X156.28 Y101.526 E.01522
G1 X156.698 Y101.311 E.01474
G1 X157.165 Y101.177 E.01523
G1 X157.63 Y101.139 E.01463
G1 X158.095 Y101.19 E.01467
G1 X158.541 Y101.329 E.01465
G1 X158.954 Y101.551 E.0147
G1 X159.331 Y101.863 E.01534
G1 X159.637 Y102.243 E.0153
G1 X159.861 Y102.673 E.0152
G1 X159.992 Y103.124 E.01473
G1 X160.001 Y103.236 E.00352
M204 S1000
G1 X160.001 Y103.236 F10800
G1 X159.634 Y103.334
M204 S800
;TYPE:External perimeter
G1 F1800
G1 X159.658 Y103.575 E.00759
G1 X159.617 Y103.984 E.01289
G1 X159.508 Y104.347 E.01188
G1 X159.325 Y104.698 E.01241
G1 X159.067 Y105.019 E.01291
G1 X158.749 Y105.284 E.01298
G1 X158.387 Y105.478 E.01288
G1 X158.007 Y105.594 E.01246
G1 X157.598 Y105.635 E.01289
G1 X157.048 Y105.553 E.01744
G1 X156.811 Y105.479 E.00778
G1 X156.475 Y105.302 E.01191
G1 X156.153 Y105.043 E.01296
G1 X155.82 Y104.601 E.01735
G1 X155.701 Y104.379 E.0079
G1 X155.579 Y103.984 E.01296
G1 X155.538 Y103.575 E.01289
G1 X155.579 Y103.165 E.01292
G1 X155.695 Y102.786 E.01243
G1 X155.889 Y102.424 E.01288
G1 X156.141 Y102.118 E.01243
G1 X156.46 Y101.857 E.01292
G1 X156.81 Y101.671 E.01243
G1 X157.347 Y101.537 E.01735
G1 X157.597 Y101.515 E.00787
G1 X157.991 Y101.552 E.01241
G1 X158.37 Y101.665 E.0124
G1 X158.721 Y101.848 E.01241
G1 X159.043 Y102.106 E.01294
G1 X159.307 Y102.424 E.01296
G1 X159.501 Y102.786 E.01288
G1 X159.617 Y103.165 E.01243
G1 X159.628 Y103.274 E.00343
M204 S1000
;WIPE_START
G1 F8640
G1 X159.634 Y103.334 E-.01392
G1 X159.658 Y103.575 E-.05592
G1 X159.617 Y103.984 E-.09491
G1 X159.508 Y104.347 E-.08751
G1 X159.325 Y104.698 E-.0914
G1 X159.067 Y105.019 E-.09509
G1 X158.749 Y105.284 E-.09558
G1 X158.387 Y105.478 E-.09483
G1 X158.007 Y105.594 E-.09174
G1 X157.666 Y105.628 E-.0791
;WIPE_END
G1 Z.6 F720
G1 X172.886 Y98.393 F10800
G1 Z.2 F720
G1 E.8 F2100
M204 S800
;TYPE:Perimeter
G1 F1800
G1 X173.501 Y98.449 E.01936
G1 X174.007 Y98.528 E.01606
G1 X174.594 Y98.697 E.01915
G1 X175.174 Y98.965 E.02003
G1 X175.625 Y99.208 E.01606
G1 X176.136 Y99.574 E.01971
G1 X176.618 Y100.034 E.02089
G1 X176.951 Y100.425 E.0161
G1 X177.294 Y100.926 E.01904
G1 X177.573 Y101.503 E.0201
G1 X177.766 Y101.978 E.01608
G1 X177.928 Y102.586 E.01973
G1 X178.005 Y103.21 E.01971
G1 X178.021 Y103.466 E.00804
G1 X177.962 Y104.359 E.02806
G1 X177.831 Y104.955 E.01913
G1 X177.656 Y105.478 E.01729
G1 X177.404 Y106.031 E.01905
G1 X177.052 Y106.566 E.02008
G1 X176.745 Y106.977 E.01608
G1 X176.307 Y107.428 E.01971
G1 X175.767 Y107.847 E.02143
G1 X175.192 Y108.195 E.02107
G1 X174.564 Y108.457 E.02134
G1 X174.085 Y108.603 E.0157
G1 X173.427 Y108.726 E.02099
G1 X172.914 Y108.76 E.01612
G1 X157.634 Y108.761 E.47909
G1 X156.828 Y108.701 E.02534
G1 X156.169 Y108.558 E.02114
G1 X155.531 Y108.329 E.02125
G1 X154.928 Y108.018 E.02127
G1 X154.371 Y107.632 E.02125
G1 X153.868 Y107.175 E.02131
G1 X153.508 Y106.753 E.01739
G1 X153.207 Y106.313 E.01672
G1 X152.907 Y105.756 E.01984
G1 X152.647 Y105.106 E.02195
G1 X152.514 Y104.576 E.01713
G1 X152.433 Y104.027 E.0174
G1 X152.417 Y103.473 E.01738
G1 X152.456 Y102.929 E.0171
G1 X152.558 Y102.375 E.01766
G1 X152.71 Y101.86 E.01684
G1 X152.912 Y101.37 E.01662
G1 X153.268 Y100.728 E.02302
G1 X153.59 Y100.29 E.01704
G1 X153.964 Y99.877 E.01747
G1 X154.381 Y99.512 E.01738
G1 X154.871 Y99.172 E.0187
G1 X155.355 Y98.907 E.0173
G1 X155.844 Y98.702 E.01663
G1 X156.424 Y98.529 E.01898
G1 X156.958 Y98.432 E.01702
G1 X157.471 Y98.391 E.01614
G1 X172.826 Y98.389 E.48144
M204 S1000
G1 X172.826 Y98.389 F10800
G1 X172.887 Y98.014
M204 S800
G1 F1800
G1 X173.535 Y98.074 E.0204
G1 X174.089 Y98.16 E.01758
G1 X174.73 Y98.345 E.02092
G1 X175.586 Y98.74 E.02956
G1 X176.143 Y99.107 E.02091
G1 X176.541 Y99.431 E.01609
G1 X176.916 Y99.8 E.0165
G1 X177.248 Y100.193 E.01613
G1 X177.623 Y100.741 E.02082
G1 X177.912 Y101.339 E.02082
G1 X178.123 Y101.859 E.0176
G1 X178.298 Y102.514 E.02126
G1 X178.382 Y103.186 E.02123
G1 X178.399 Y103.467 E.00883
G1 X178.337 Y104.408 E.02957
G1 X178.174 Y105.127 E.02312
G1 X178.008 Y105.613 E.0161
G1 X177.732 Y106.217 E.02082
G1 X177.214 Y107.008 E.02965
G1 X176.768 Y107.504 E.02091
G1 X176.363 Y107.87 E.01712
G1 X175.787 Y108.291 E.02237
G1 X175.148 Y108.629 E.02267
G1 X174.663 Y108.822 E.01637
G1 X174.176 Y108.969 E.01595
G1 X173.469 Y109.101 E.02255
G1 X172.926 Y109.137 E.01706
G1 X157.62 Y109.138 E.47991
G1 X156.773 Y109.075 E.02663
G1 X156.065 Y108.921 E.02272
G1 X155.38 Y108.675 E.02282
G1 X154.733 Y108.342 E.02282
G1 X154.136 Y107.928 E.02278
G1 X153.596 Y107.438 E.02286
G1 X153.221 Y106.998 E.01813
G1 X152.892 Y106.519 E.01822
G1 X152.619 Y106.027 E.01764
G1 X152.38 Y105.484 E.0186
G1 X152.222 Y104.976 E.01668
G1 X152.104 Y104.406 E.01825
G1 X152.05 Y103.885 E.01642
G1 X152.05 Y103.303 E.01825
G1 X152.099 Y102.773 E.01669
G1 X152.21 Y102.217 E.01778
G1 X152.357 Y101.73 E.01595
G1 X152.572 Y101.206 E.01776
G1 X152.818 Y100.743 E.01644
G1 X153.136 Y100.266 E.01797
G1 X153.461 Y99.866 E.01616
G1 X153.861 Y99.463 E.0178
G1 X154.266 Y99.129 E.01646
G1 X154.743 Y98.81 E.01799
G1 X155.197 Y98.564 E.01619
G1 X155.72 Y98.346 E.01777
G1 X156.333 Y98.163 E.02006
G1 X156.899 Y98.059 E.01804
G1 X157.458 Y98.014 E.01758
G1 X172.828 Y98.012 E.48191
M204 S1000
G1 X172.828 Y98.012 F10800
G1 X172.889 Y97.636
M204 S800
;TYPE:External perimeter
G1 F1800
G1 X173.873 Y97.726 E.03098
G1 X174.375 Y97.838 E.01613
G1 X174.866 Y97.992 E.01613
G1 X175.766 Y98.407 E.03107
G1 X176.202 Y98.68 E.01613
G1 X176.616 Y98.992 E.01625
G1 X177.001 Y99.338 E.01623
G1 X177.354 Y99.717 E.01624
G1 X177.674 Y100.126 E.01628
G1 X177.953 Y100.555 E.01605
G1 X178.384 Y101.45 E.03115
G1 X178.548 Y101.938 E.01614
G1 X178.669 Y102.442 E.01625
G1 X178.758 Y103.163 E.02278
G1 X178.777 Y103.468 E.00958
G1 X178.712 Y104.456 E.03104
G1 X178.614 Y104.961 E.01613
G1 X178.471 Y105.46 E.01628
G1 X178.285 Y105.943 E.01623
G1 X178.06 Y106.404 E.01608
G1 X177.516 Y107.235 E.03114
G1 X177.182 Y107.626 E.01612
G1 X176.812 Y107.989 E.01625
G1 X176.413 Y108.319 E.01623
G1 X175.987 Y108.611 E.01619
G1 X175.535 Y108.867 E.01629
G1 X175.063 Y109.082 E.01626
G1 X174.524 Y109.27 E.0179
G1 X174.022 Y109.395 E.01622
G1 X173.511 Y109.476 E.01622
G1 X172.938 Y109.514 E.01801
G1 X157.606 Y109.515 E.48072
G1 X156.719 Y109.449 E.02789
G1 X155.961 Y109.284 E.02432
G1 X155.229 Y109.022 E.02438
G1 X154.539 Y108.666 E.02434
G1 X153.9 Y108.223 E.02438
G1 X153.325 Y107.701 E.02435
G1 X152.854 Y107.15 E.02273
G1 X152.428 Y106.5 E.02437
G1 X152.09 Y105.799 E.0244
G1 X151.903 Y105.262 E.01783
G1 X151.757 Y104.657 E.01951
G1 X151.681 Y104.093 E.01784
G1 X151.658 Y103.524 E.01786
G1 X151.696 Y102.904 E.01948
G1 X151.788 Y102.34 E.01792
G1 X151.933 Y101.789 E.01786
G1 X152.13 Y101.254 E.01788
G1 X152.378 Y100.741 E.01787
G1 X152.673 Y100.254 E.01785
G1 X153.047 Y99.758 E.01948
G1 X153.435 Y99.338 E.01793
G1 X153.86 Y98.959 E.01785
G1 X154.319 Y98.622 E.01785
G1 X154.856 Y98.306 E.01954
G1 X155.373 Y98.068 E.01785
G1 X155.911 Y97.88 E.01787
G1 X156.414 Y97.754 E.01626
G1 X156.923 Y97.674 E.01616
G1 X157.444 Y97.637 E.01638
G1 X172.829 Y97.635 E.48239
M204 S1000
;WIPE_START
G1 F8640
G1 X172.889 Y97.636 E-.01386
G1 X173.873 Y97.726 E-.22816
G1 X174.375 Y97.838 E-.11876
G1 X174.866 Y97.992 E-.11882
G1 X175.766 Y98.407 E-.22884
G1 X176.102 Y98.617 E-.09156
;WIPE_END
G1 Z.6 F720
G1 X177.167 Y101.054 F10800
G1 Z.2 F720
G1 E.8 F2100
M204 S800
;TYPE:Solid infill
;WIDTH:0.421866
G1 F1800
G1 X176.222 Y100.109 E.04211
G1 X175.92 Y99.836 E.01283
G1 X175.582 Y99.582 E.01332
G1 X175.245 Y99.371 E.01253
G1 X174.696 Y99.118 E.01905
G1 X177.303 Y101.725 E.11617
G1 X177.369 Y101.863 E.00482
G1 X177.495 Y102.239 E.0125
G1 X177.563 Y102.521 E.00914
G1 X173.892 Y98.851 E.16356
G1 X173.704 Y98.809 E.00607
G1 X173.275 Y98.77 E.01357
G1 X177.662 Y103.156 E.19547
G1 X177.681 Y103.465 E.00975
G1 X177.666 Y103.696 E.00729
G1 X172.699 Y98.729 E.22134
G1 X172.163 Y98.729 E.01689
G1 X177.633 Y104.199 E.24375
G1 X177.558 Y104.66 E.01472
G1 X171.627 Y98.729 E.26429
G1 X171.091 Y98.729 E.01689
G1 X177.442 Y105.08 E.28301
G1 X177.296 Y105.469 E.01309
G1 X170.555 Y98.729 E.30036
G1 X170.02 Y98.729 E.01686
G1 X177.123 Y105.832 E.31652
G1 X176.914 Y106.159 E.01223
G1 X169.484 Y98.729 E.33109
G1 X168.948 Y98.729 E.01689
G1 X176.701 Y106.483 E.3455
G1 X176.465 Y106.782 E.012
G1 X168.412 Y98.729 E.35885
G1 X167.876 Y98.729 E.01689
G1 X176.202 Y107.055 E.37102
G1 X175.919 Y107.308 E.01196
G1 X167.34 Y98.729 E.38229
G1 X166.804 Y98.729 E.01689
G1 X175.615 Y107.54 E.39263
G1 X175.289 Y107.75 E.01222
G1 X166.269 Y98.729 E.40196
G1 X165.733 Y98.73 E.01689
G1 X174.94 Y107.937 E.41027
G1 X174.565 Y108.098 E.01286
G1 X165.197 Y98.73 E.41745
G1 X164.661 Y98.73 E.01689
G1 X174.164 Y108.233 E.42346
G1 X173.73 Y108.335 E.01405
G1 X164.125 Y98.73 E.42801
G1 X163.589 Y98.73 E.01689
G1 X173.257 Y108.397 E.43079
G1 X172.744 Y108.42 E.01618
G1 X163.054 Y98.73 E.4318
G1 X162.518 Y98.73 E.01689
G1 X172.208 Y108.421 E.43182
G1 X171.672 Y108.421 E.01689
G1 X161.982 Y98.73 E.43182
G1 X161.446 Y98.73 E.01689
G1 X171.137 Y108.421 E.43184
G1 X170.601 Y108.421 E.01689
G1 X160.91 Y98.73 E.43184
G1 X160.374 Y98.73 E.01689
G1 X170.065 Y108.421 E.43184
G1 X169.529 Y108.421 E.01689
G1 X159.838 Y98.73 E.43184
G1 X159.303 Y98.73 E.01686
G1 X168.993 Y108.421 E.43182
G1 X168.457 Y108.421 E.01689
G1 X158.767 Y98.73 E.43182
G1 X158.231 Y98.73 E.01689
G1 X167.921 Y108.421 E.43182
G1 X167.385 Y108.421 E.01689
M73 P0 R151
G1 X157.695 Y98.731 E.4318
G1 X157.18 Y98.752 E.01624
G1 X166.849 Y108.421 E.43086
G1 X166.314 Y108.421 E.01686
G1 X160.633 Y102.741 E.25313
G1 X160.703 Y103.04 E.00968
G1 X160.736 Y103.379 E.01073
G1 X165.778 Y108.421 E.22468
G1 X165.242 Y108.421 E.01689
G1 X160.725 Y103.904 E.20128
G1 X160.712 Y104.055 E.00478
G1 X160.644 Y104.359 E.00982
G1 X164.706 Y108.421 E.18101
G1 X164.17 Y108.421 E.01689
G1 X160.511 Y104.762 E.16305
G1 X160.339 Y105.125 E.01266
G1 X163.634 Y108.421 E.14685
G1 X163.098 Y108.421 E.01689
G1 X160.126 Y105.449 E.13244
G1 X159.883 Y105.742 E.01199
G1 X162.562 Y108.421 E.11938
G1 X162.027 Y108.421 E.01686
G1 X159.603 Y105.998 E.10799
G1 X159.297 Y106.228 E.01206
G1 X161.491 Y108.421 E.09774
G1 X160.955 Y108.421 E.01689
G1 X158.953 Y106.419 E.08921
G1 X158.564 Y106.566 E.0131
G1 X160.419 Y108.421 E.08266
G1 X159.883 Y108.421 E.01689
G1 X158.139 Y106.677 E.07771
G1 X157.655 Y106.729 E.01534
G1 X159.347 Y108.421 E.0754
G1 X158.811 Y108.421 E.01689
G1 X156.843 Y106.453 E.0877
M204 S1000
;WIPE_START
G1 F8640
G1 X158.811 Y108.421 E-.64264
G1 X159.347 Y108.421 E-.12376
G1 X159.244 Y108.318 E-.0336
;WIPE_END
G1 Z.6 F720
G1 X158.699 Y100.806 F10800
G1 Z.2 F720
G1 E.8 F2100
M204 S800
G1 F1800
G1 X156.708 Y98.815 E.08872
G1 X156.273 Y98.916 E.01407
G1 X157.795 Y100.438 E.06782
G1 X157.542 Y100.42 E.00799
G1 X157.271 Y100.45 E.00859
G1 X155.872 Y99.051 E.06234
G1 X155.783 Y99.083 E.00298
G1 X155.499 Y99.214 E.00985
G1 X156.816 Y100.531 E.05869
G1 X156.409 Y100.66 E.01345
G1 X155.151 Y99.401 E.05608
G1 X154.822 Y99.609 E.01226
G1 X156.054 Y100.841 E.0549
G1 X155.795 Y100.986 E.00935
G1 X155.724 Y101.047 E.00295
G1 X154.516 Y99.839 E.05383
G1 X154.233 Y100.092 E.01196
G1 X155.435 Y101.293 E.05354
G1 X155.321 Y101.39 E.00472
G1 X155.178 Y101.573 E.00732
G1 X153.973 Y100.367 E.05372
G1 X153.733 Y100.664 E.01203
G1 X154.942 Y101.872 E.05385
G1 X154.761 Y102.227 E.01256
G1 X153.512 Y100.979 E.05563
G1 X153.314 Y101.317 E.01234
G1 X154.607 Y102.61 E.05762
G1 X154.492 Y103.03 E.01372
G1 X153.14 Y101.678 E.06025
G1 X152.995 Y102.069 E.01314
G1 X154.452 Y103.527 E.06495
G1 X154.443 Y103.639 E.00354
G1 X154.5 Y104.11 E.01495
