; generated by PrusaSlicer 2.7.4+win64 on 2024-07-21 at 17:29:48 UTC


;
;
; 

; external perimeters extrusion width = 0.45mm
; perimeters extrusion width = 0.45mm
; infill extrusion width = 0.45mm
; solid infill extrusion width = 0.45mm
; top infill extrusion width = 0.40mm
; first layer extrusion width = 0.42mm

M73 P0 R18
M73 Q0 S18
M201 X1000 Y1000 Z200 E5000 ; sets maximum accelerations, mm/sec^2
M203 X200 Y200 Z12 E120 ; sets maximum feedrates, mm / sec
M204 S1250 T1250 ; sets acceleration (S) and retract acceleration (R), mm/sec^2
M205 X8.00 Y8.00 Z0.40 E4.50 ; sets the jerk limits, mm/sec
M205 S0 T0 ; sets the minimum extruding and travel feed rate, mm/sec

; printing object pot handle lock.STL id:0 copy 0
; stop printing object pot handle lock.STL id:0 copy 0

;TYPE:Custom
M862.3 P "MK3S" ; printer model check
M862.1 P0.4 ; nozzle diameter check
M115 U3.13.1 ; tell printer latest fw version
G90 ; use absolute coordinates
M83 ; extruder relative mode
M104 S215 ; set extruder temp
M140 S60 ; set bed temp
M190 S60 ; wait for bed temp
M109 S215 ; wait for extruder temp
G28 W ; home all without mesh bed level
G80 X111.512 Y100.888 W31.0539 H8.22307 ; mesh bed levelling

G1 Z0.2 F720
G1 Y-3 F1000 ; go outside print area
G92 E0
G1 X60 E9 F1000 ; intro line
G1 X100 E12.5 F1000 ; intro line

G92 E0
M221 S95

; Don't change E values below. Excessive value can damage the printer.

M907 E538 ; set extruder motor current
G21 ; set units to millimeters
G90 ; use absolute coordinates
M83 ; use relative distances for extrusion

M900 K0.05 ; Filament gcode LA 1.5
M900 K30 ; Filament gcode LA 1.0




M107
;LAYER_CHANGE
;Z:0.2
;HEIGHT:0.2
G1 E-.8 F2100
G1 Z.6 F720
; printing object pot handle lock.STL id:0 copy 0
G1 X127.838 Y104.924 F10800
G1 Z.2 F720
G1 E.8 F2100
M204 S800
;TYPE:Perimeter
;WIDTH:0.419999
G1 F1200
G1 X127.917 Y105.216 E.00948
G1 X127.976 Y105.286 E.00287
G1 X128.225 Y105.433 E.00907
G1 X128.378 Y105.454 E.00484
G1 X133.893 Y105.454 E.17292
G1 X133.991 Y105.445 E.00309
G1 X134.209 Y105.357 E.00737
G1 X134.443 Y105.021 E.01284
G1 X134.483 Y104.29 E.02295
G1 X134.574 Y103.785 E.01609
G1 X134.729 Y103.306 E.01579
G1 X134.911 Y102.932 E.01304
G1 X135.218 Y102.458 E.01771
G1 X135.596 Y102.037 E.01774
G1 X135.985 Y101.714 E.01585
G1 X136.174 Y101.7 E.00594
G1 X136.295 Y101.854 E.00614
G1 X136.311 Y102.511 E.02061
G1 X135.94 Y102.882 E.01645
G1 X135.631 Y103.354 E.01769
G1 X135.385 Y103.996 E.02156
G1 X135.306 Y104.506 E.01618
G1 X135.329 Y105.019 E.0161
G1 X135.548 Y105.81 E.02573
G1 X135.919 Y106.421 E.02241
G1 X136.469 Y106.946 E.02384
G1 X136.996 Y107.247 E.01903
G1 X137.38 Y107.386 E.0128
G1 X137.895 Y107.475 E.01639
G1 X138.412 Y107.469 E.01621
G1 X138.918 Y107.369 E.01617
G1 X139.378 Y107.188 E.0155
G1 X139.747 Y106.96 E.0136
G1 X140.171 Y106.593 E.01758
G1 X140.5 Y106.168 E.01685
G1 X140.751 Y105.676 E.01732
G1 X140.882 Y105.226 E.0147
G1 X140.937 Y104.741 E.0153
G1 X140.914 Y104.294 E.01403
G1 X140.814 Y103.84 E.01458
G1 X140.641 Y103.408 E.01459
G1 X140.34 Y102.931 E.01768
G1 X139.926 Y102.511 E.01849
G1 X139.932 Y101.912 E.01878
G1 X139.975 Y101.777 E.00444
G1 X140.121 Y101.686 E.00539
G1 X140.295 Y101.736 E.00568
G1 X140.681 Y102.064 E.01588
G1 X141.081 Y102.521 E.01904
G1 X141.459 Y103.191 E.02412
G1 X141.583 Y103.548 E.01185
G1 X141.713 Y104.06 E.01656
G1 X141.772 Y104.625 E.01781
G1 X141.724 Y105.281 E.02062
G1 X141.529 Y105.986 E.02293
G1 X141.198 Y106.639 E.02295
G1 X140.767 Y107.188 E.02188
G1 X140.229 Y107.654 E.02232
G1 X139.772 Y107.922 E.01661
G1 X139.258 Y108.137 E.01747
G1 X138.716 Y108.273 E.01752
G1 X138.24 Y108.322 E.015
G1 X124.328 Y108.314 E.4362
G1 X123.764 Y108.296 E.01769
G1 X123.208 Y108.19 E.01775
G1 X122.654 Y107.994 E.01843
G1 X122.158 Y107.724 E.01771
G1 X121.691 Y107.37 E.01837
G1 X121.339 Y107.002 E.01597
G1 X121.044 Y106.596 E.01574
G1 X120.773 Y106.085 E.01814
G1 X120.546 Y105.855 E.01013
G1 X120.273 Y105.784 E.00884
G1 X112.299 Y105.784 E.25002
G1 X112.299 Y103.549 E.07008
G1 X120.227 Y103.549 E.24858
G1 X120.505 Y103.499 E.00886
M73 Q1 S18
G1 X120.617 Y103.432 E.00409
G1 X120.764 Y103.264 E.007
G1 X121.163 Y102.569 E.02513
G1 X121.766 Y101.909 E.02803
G1 X121.899 Y101.908 E.00417
G1 X122.064 Y102.016 E.00618
G1 X122.093 Y102.13 E.00369
G1 X122.093 Y102.748 E.01938
M73 P1 R18
G1 X121.766 Y103.166 E.01664
G1 X121.527 Y103.639 E.01662
G1 X121.39 Y104.121 E.01571
G1 X121.341 Y104.752 E.01984
G1 X121.396 Y105.262 E.01608
G1 X121.523 Y105.685 E.01385
G1 X121.703 Y106.064 E.01316
G1 X121.971 Y106.455 E.01486
G1 X122.338 Y106.824 E.01632
G1 X122.86 Y107.165 E.01955
G1 X123.448 Y107.395 E.0198
G1 X123.945 Y107.478 E.0158
G1 X124.452 Y107.465 E.0159
G1 X125.236 Y107.263 E.02538
G1 X125.946 Y106.833 E.02603
G1 X126.405 Y106.351 E.02087
G1 X126.513 Y106.19 E.00608
G1 X126.851 Y105.46 E.02522
G1 X126.965 Y104.64 E.02596
G1 X126.841 Y103.841 E.02535
G1 X126.572 Y103.232 E.02087
G1 X126.208 Y102.77 E.01844
G1 X126.208 Y102.16 E.01913
G1 X126.298 Y101.946 E.00728
G1 X126.44 Y101.905 E.00463
G1 X126.616 Y101.972 E.0059
G1 X127.023 Y102.405 E.01863
G1 X127.339 Y102.877 E.01781
G1 X127.564 Y103.364 E.01682
G1 X127.662 Y103.688 E.01061
G1 X127.779 Y104.213 E.01686
G1 X127.808 Y104.814 E.01887
G1 X127.822 Y104.866 E.00169
M204 S1000
G1 X127.822 Y104.866 F10800
G1 X128.187 Y104.837
M204 S800
;TYPE:External perimeter
G1 F1200
G1 X128.244 Y105.021 E.00604
G1 X128.378 Y105.077 E.00455
G1 X133.893 Y105.077 E.17292
G1 X133.999 Y105.044 E.00348
G1 X134.082 Y104.896 E.00532
G1 X134.108 Y104.249 E.0203
G1 X134.213 Y103.662 E.0187
G1 X134.389 Y103.132 E.01751
G1 X134.655 Y102.601 E.01862
G1 X134.981 Y102.14 E.0177
G1 X135.327 Y101.773 E.01581
G1 X135.827 Y101.362 E.02029
G1 X136.007 Y101.324 E.00577
G1 X136.272 Y101.329 E.00831
G1 X136.465 Y101.438 E.00695
G1 X136.67 Y101.755 E.01184
G1 X136.692 Y102.693 E.02942
G1 X136.497 Y102.843 E.00771
G1 X136.22 Y103.134 E.0126
G1 X135.983 Y103.489 E.01338
G1 X135.744 Y104.111 E.02089
G1 X135.692 Y104.447 E.01066
G1 X135.694 Y104.928 E.01508
G1 X135.875 Y105.622 E.02249
G1 X136.187 Y106.156 E.01939
G1 X136.656 Y106.618 E.02064
G1 X137.183 Y106.92 E.01904
G1 X137.498 Y107.028 E.01044
G1 X137.953 Y107.102 E.01445
G1 X138.456 Y107.083 E.01578
G1 X139.047 Y106.917 E.01925
G1 X139.541 Y106.644 E.0177
G1 X139.91 Y106.321 E.01538
G1 X140.193 Y105.949 E.01466
G1 X140.409 Y105.517 E.01514
G1 X140.518 Y105.127 E.0127
G1 X140.562 Y104.704 E.01333
G1 X140.537 Y104.32 E.01207
G1 X140.447 Y103.927 E.01264
G1 X140.279 Y103.526 E.01363
G1 X139.922 Y103.03 E.01916
G1 X139.548 Y102.693 E.01578
G1 X139.585 Y101.724 E.0304
G1 X139.73 Y101.474 E.00906
G1 X139.971 Y101.337 E.00869
G1 X140.261 Y101.311 E.00913
G1 X140.525 Y101.437 E.00917
G1 X140.946 Y101.795 E.01733
G1 X141.394 Y102.308 E.02135
G1 X141.828 Y103.077 E.02769
G1 X142.039 Y103.737 E.02173
G1 X142.1 Y104.126 E.01235
G1 X142.148 Y104.652 E.01656
G1 X142.106 Y105.23 E.01817
G1 X142.042 Y105.545 E.01008
G1 X141.837 Y106.212 E.02188
G1 X141.469 Y106.904 E.02457
G1 X140.984 Y107.499 E.02407
G1 X140.405 Y107.989 E.02378
G1 X139.884 Y108.287 E.01882
G1 X139.382 Y108.493 E.01701
G1 X138.798 Y108.641 E.01889
G1 X138.258 Y108.699 E.01703
G1 X123.818 Y108.684 E.45276
G1 X123.26 Y108.596 E.01771
G1 X122.76 Y108.45 E.01633
G1 X122.25 Y108.222 E.01752
G1 X121.777 Y107.925 E.01751
G1 X121.375 Y107.59 E.01641
G1 X120.962 Y107.129 E.01941
G1 X120.644 Y106.645 E.01816
G1 X120.389 Y106.201 E.01605
G1 X120.273 Y106.162 E.00384
G1 X111.922 Y106.162 E.26184
G1 X111.922 Y103.172 E.09375
G1 X120.227 Y103.172 E.2604
G1 X120.351 Y103.155 E.00392
G1 X120.437 Y103.077 E.00364
G1 X120.878 Y102.308 E.02779
G1 X121.39 Y101.739 E.024
G1 X121.593 Y101.571 E.00826
G1 X121.876 Y101.508 E.00909
G1 X122.171 Y101.595 E.00964
G1 X122.38 Y101.797 E.00911
G1 X122.47 Y102.094 E.00973
G1 X122.47 Y102.902 E.02533
G1 X122.175 Y103.241 E.01409
G1 X121.898 Y103.725 E.01749
G1 X121.766 Y104.15 E.01395
G1 X121.721 Y104.734 E.01837
G1 X121.769 Y105.205 E.01484
G1 X121.883 Y105.571 E.01202
G1 X122.041 Y105.897 E.01136
G1 X122.259 Y106.21 E.01196
G1 X122.526 Y106.487 E.01206
G1 X122.871 Y106.746 E.01353
G1 X123.327 Y106.958 E.01577
G1 X123.944 Y107.099 E.01984
G1 X124.369 Y107.097 E.01333
G1 X125.05 Y106.935 E.02195
G1 X125.673 Y106.573 E.02259
G1 X126.176 Y106.021 E.02342
G1 X126.479 Y105.397 E.02175
G1 X126.591 Y104.687 E.02254
G1 X126.523 Y104.145 E.01713
G1 X126.441 Y103.869 E.00903
G1 X126.198 Y103.338 E.01831
G1 X125.831 Y102.909 E.0177
G1 X125.831 Y102.194 E.02242
G1 X125.909 Y101.822 E.01192
G1 X126.064 Y101.639 E.00752
G1 X126.315 Y101.523 E.00867
G1 X126.601 Y101.533 E.00897
G1 X126.85 Y101.67 E.00891
G1 X127.319 Y102.169 E.02147
G1 X127.668 Y102.691 E.01969
G1 X127.906 Y103.205 E.01776
G1 X128.025 Y103.585 E.01249
G1 X128.155 Y104.174 E.01891
G1 X128.184 Y104.778 E.01896
M204 S1000
;WIPE_START
G1 F8640
G1 X128.187 Y104.837 E-.01364
G1 X128.244 Y105.021 E-.04448
G1 X128.378 Y105.077 E-.03353
G1 X131.446 Y105.077 E-.70835
;WIPE_END
G1 Z.6 F720
G1 X141.181 Y103.042 F10800
G1 Z.2 F720
G1 E.8 F2100
M204 S800
;TYPE:Solid infill
;WIDTH:0.421524
G1 F1200
G1 X140.269 Y102.147 E.04023
G1 X140.267 Y102.361 E.00674
G1 X140.626 Y102.743 E.0165
G1 X140.91 Y103.185 E.01654
G1 X141 Y103.398 E.00728
G1 X141.262 Y103.659 E.01164
G1 X141.359 Y103.963 E.01005
G1 X141.404 Y104.336 E.01183
G1 X141.235 Y104.168 E.0075
G1 X141.277 Y104.745 E.01821
G1 X141.413 Y104.881 E.00605
G1 X141.388 Y105.222 E.01076
G1 X141.351 Y105.355 E.00435
G1 X141.226 Y105.23 E.00557
G1 X141.116 Y105.655 E.01382
G1 X141.235 Y105.774 E.0053
G1 X141.211 Y105.863 E.0029
G1 X141.069 Y106.143 E.00988
G1 X140.95 Y106.024 E.0053
G1 X140.767 Y106.377 E.01252
G1 X140.882 Y106.492 E.00512
G1 X140.647 Y106.792 E.012
G1 X140.544 Y106.689 E.00459
G1 X140.277 Y106.957 E.01191
G1 X140.387 Y107.068 E.00492
G1 X140.1 Y107.316 E.01194
G1 X139.984 Y107.2 E.00516
G1 X139.657 Y107.409 E.01222
G1 X139.783 Y107.535 E.00561
G1 X139.754 Y107.554 E.00109
G1 X139.426 Y107.713 E.01148
G1 X139.3 Y107.587 E.00561
G1 X139.091 Y107.673 E.00711
G1 X138.893 Y107.716 E.00638
G1 X139.033 Y107.855 E.00621
G1 X138.638 Y107.943 E.01274
G1 X138.59 Y107.947 E.00152
G1 X138.448 Y107.806 E.0063
G1 X137.92 Y107.813 E.01662
G1 X138.089 Y107.982 E.00752
G1 X137.554 Y107.982 E.01684
G1 X136.997 Y107.426 E.02478
M204 S1000
;WIPE_START
G1 F8640
G1 X137.554 Y107.982 E-.18172
G1 X138.089 Y107.982 E-.12353
G1 X137.92 Y107.813 E-.05519
G1 X138.448 Y107.806 E-.12193
G1 X138.59 Y107.947 E-.04621
G1 X138.638 Y107.943 E-.01112
G1 X139.033 Y107.855 E-.09344
G1 X138.893 Y107.716 E-.04555
G1 X139.091 Y107.673 E-.04678
G1 X139.3 Y107.587 E-.05218
G1 X139.369 Y107.655 E-.02235
;WIPE_END
G1 Z.6 F720
G1 X135.948 Y102.629 F10800
G1 Z.2 F720
G1 E.8 F2100
M204 S800
G1 F1200
G1 X135.717 Y102.398 E.01028
G1 X135.57 Y102.548 E.00661
G1 X135.471 Y102.687 E.00537
G1 X135.584 Y102.8 E.00503
G1 X135.371 Y103.122 E.01215
G1 X135.254 Y103.005 E.00521
G1 X135.075 Y103.362 E.01257
G1 X135.216 Y103.503 E.00628
G1 X135.073 Y103.895 E.01314
G1 X134.936 Y103.758 E.0061
G1 X134.909 Y103.839 E.00269
G1 X134.844 Y104.202 E.01161
G1 X134.986 Y104.344 E.00632
G1 X134.967 Y104.49 E.00463
G1 X134.974 Y104.867 E.01187
G1 X134.8 Y104.693 E.00775
G1 X134.775 Y105.111 E.01318
G1 X134.741 Y105.169 E.00212
G1 X135.353 Y105.781 E.02725
M204 S1000
;WIPE_START
G1 F8640
G1 X134.741 Y105.169 E-.19985
G1 X134.775 Y105.111 E-.01552
G1 X134.8 Y104.693 E-.09669
G1 X134.974 Y104.867 E-.05682
G1 X134.967 Y104.49 E-.08707
G1 X134.986 Y104.344 E-.034
G1 X134.844 Y104.202 E-.04637
G1 X134.909 Y103.839 E-.08515
G1 X134.936 Y103.758 E-.01971
G1 X135.073 Y103.895 E-.04474
G1 X135.216 Y103.503 E-.09635
G1 X135.162 Y103.449 E-.01773
;WIPE_END
G1 Z.6 F720
G1 X134.418 Y105.382 F10800
G1 Z.2 F720
G1 E.8 F2100
M204 S800
G1 F1200
G1 X137.018 Y107.982 E.11575
G1 X136.482 Y107.982 E.01687
G1 X134.223 Y105.722 E.1006
G1 X134.141 Y105.76 E.00285
G1 X133.758 Y105.793 E.0121
G1 X135.947 Y107.981 E.09743
G1 X135.411 Y107.981 E.01687
G1 X133.223 Y105.793 E.09741
G1 X132.687 Y105.793 E.01687
G1 X134.875 Y107.981 E.09741
G1 X134.339 Y107.98 E.01687
G1 X132.152 Y105.793 E.09737
G1 X131.617 Y105.793 E.01684
G1 X133.804 Y107.98 E.09737
G1 X133.268 Y107.98 E.01687
G1 X131.081 Y105.793 E.09737
G1 X130.546 Y105.793 E.01684
G1 X132.732 Y107.98 E.09735
G1 X132.197 Y107.979 E.01684
G1 X130.01 Y105.793 E.09735
G1 X129.475 Y105.793 E.01684
G1 X131.661 Y107.979 E.09732
G1 X131.125 Y107.979 E.01687
G1 X128.77 Y105.623 E.10487
M204 S1000
;WIPE_START
G1 F8640
M73 Q2 S18
G1 X131.125 Y107.979 E-.76918
G1 X131.258 Y107.979 E-.03082
;WIPE_END
G1 Z.6 F720
G1 X127.532 Y103.85 F10800
M73 P2 R18
G1 Z.2 F720
G1 E.8 F2100
M204 S800
G1 F1200
G1 X126.966 Y103.284 E.0252
G1 X127.156 Y103.713 E.01477
G1 X127.22 Y103.946 E.00761
G1 X127.238 Y104.092 E.00463
G1 X127.622 Y104.476 E.0171
M204 S1000
G1 X127.622 Y104.476 F10800
G1 X127.119 Y104.508
M204 S800
G1 F1200
G1 X127.471 Y104.86 E.01567
G1 X127.475 Y104.953 E.00293
G1 X127.632 Y105.406 E.01509
G1 X127.827 Y105.609 E.00886
G1 X128.129 Y105.76 E.01063
G1 X128.404 Y105.793 E.00872
G1 X130.589 Y107.978 E.09728
G1 X130.054 Y107.978 E.01684
G1 X127.24 Y105.165 E.12526
G1 X127.158 Y105.618 E.01449
G1 X129.518 Y107.978 E.10507
G1 X128.982 Y107.978 E.01687
G1 X126.99 Y105.986 E.08869
G1 X126.815 Y106.345 E.01257
G1 X128.447 Y107.977 E.07266
G1 X127.911 Y107.977 E.01687
G1 X126.586 Y106.653 E.05897
G1 X126.325 Y106.927 E.01191
G1 X127.375 Y107.977 E.04675
G1 X126.839 Y107.976 E.01687
G1 X126.046 Y107.183 E.03531
G1 X125.712 Y107.384 E.01227
G1 X126.304 Y107.976 E.02636
G1 X125.768 Y107.976 E.01687
G1 X125.366 Y107.574 E.0179
G1 X125.168 Y107.651 E.00669
G1 X124.955 Y107.699 E.00687
G1 X125.232 Y107.976 E.01233
G1 X124.697 Y107.975 E.01684
G1 X124.518 Y107.797 E.00795
G1 X124.002 Y107.816 E.01626
G1 X124.161 Y107.975 E.00708
G1 X123.919 Y107.975 E.00762
G1 X123.579 Y107.929 E.0108
G1 X123.111 Y107.46 E.02086
M204 S1000
;WIPE_START
G1 F8640
G1 X123.579 Y107.929 E-.15299
G1 X123.919 Y107.975 E-.07922
G1 X124.161 Y107.975 E-.05588
G1 X124.002 Y107.816 E-.05192
G1 X124.518 Y107.797 E-.11923
G1 X124.697 Y107.975 E-.05829
G1 X125.232 Y107.976 E-.12353
G1 X124.955 Y107.699 E-.09045
G1 X125.168 Y107.651 E-.05042
G1 X125.241 Y107.623 E-.01807
;WIPE_END
G1 Z.6 F720
G1 X121.76 Y102.897 F10800
G1 Z.2 F720
G1 E.8 F2100
M204 S800
G1 F1200
G1 X121.524 Y102.661 E.01051
G1 X121.462 Y102.73 E.00292
G1 X121.314 Y102.987 E.00934
G1 X121.417 Y103.09 E.00459
G1 X121.241 Y103.449 E.01259
G1 X121.119 Y103.327 E.00543
G1 X121.036 Y103.471 E.00523
G1 X120.889 Y103.633 E.00689
G1 X121.105 Y103.849 E.00962
G1 X121.052 Y104.086 E.00765
G1 X121.035 Y104.313 E.00717
G1 X120.553 Y103.832 E.02144
G1 X120.289 Y103.888 E.0085
G1 X120.074 Y103.888 E.00677
G1 X121.001 Y104.815 E.04127
G1 X121.007 Y104.957 E.00447
G1 X121.09 Y105.439 E.0154
G1 X119.538 Y103.888 E.06907
G1 X119.003 Y103.888 E.01684
G1 X123.1 Y107.985 E.1824
M204 S1000
;WIPE_START
G1 F8640
G1 X120.65 Y105.535 E-.8
;WIPE_END
G1 Z.6 F720
G1 X120.194 Y105.615 F10800
G1 Z.2 F720
G1 E.8 F2100
M204 S800
G1 F1200
G1 X118.468 Y103.888 E.07687
G1 X117.932 Y103.888 E.01687
G1 X119.489 Y105.445 E.06932
G1 X118.954 Y105.445 E.01684
G1 X117.397 Y103.888 E.06932
G1 X116.861 Y103.888 E.01687
G1 X118.418 Y105.445 E.06932
G1 X117.883 Y105.445 E.01684
G1 X116.326 Y103.888 E.06932
G1 X115.79 Y103.888 E.01687
G1 X117.348 Y105.445 E.06934
G1 X116.812 Y105.445 E.01687
G1 X115.255 Y103.888 E.06932
G1 X114.72 Y103.888 E.01684
G1 X116.277 Y105.445 E.06932
G1 X115.741 Y105.445 E.01687
G1 X114.184 Y103.888 E.06932
G1 X113.649 Y103.888 E.01684
G1 X115.206 Y105.445 E.06932
G1 X114.67 Y105.445 E.01687
G1 X113.113 Y103.888 E.06932
G1 X112.638 Y103.888 E.01495
G1 X112.638 Y103.948 E.00189
G1 X114.135 Y105.445 E.06665
G1 X113.6 Y105.445 E.01684
G1 X112.638 Y104.484 E.04281
G1 X112.638 Y105.019 E.01684
G1 X113.234 Y105.615 E.02653
M204 S1000
M106 S84.15
;LAYER_CHANGE
;Z:0.4
;HEIGHT:0.2
;BEFORE_LAYER_CHANGE
G92 E0.0
;0.4


;WIPE_START
G1 F8640
G1 X112.638 Y105.019 E-.19462
G1 X112.638 Y104.484 E-.12353
